X:1
T:Lady if you so spite me
T: 
T:Lady if you so spite me 
T:John Dowland
T:© David Fraser 2009, distributed according to the terms of the CPDL Licence (www.cpdl.org)
T:© David Fraser 2009, distributed according to the terms of the CPDL Licence (www.cpdl.org)
C:John Dowland
Z:© David Fraser 2009, distributed according to the terms of the CPDL Licence (www.cpdl.org)
%%score 1 2 ( 3 4 )
L:1/8
Q:1/4=60
M:4/4
K:C
V:1 treble nm="Cantus"
V:2 bass nm="Bassus"
V:3 tab stafflines=6 strings=G2,C3,F3,A3,D4,G4 nostems nm="Lute"
V:4 tab stafflines=6 strings=G2,C3,F3,A3,D4,G4 nostems 
V:1
 _B2 BB A2 =B2 | c4 d2 _e2 | c>_e d/e/c B4 | z2 d3 c _e2 | d3 d f3 f | _e4 d2 e2- | e(_ed)c d4 | %7
w: La\- dy if you so|spite me, so|spite _ _ _ _ me,|Where\- fore do|you so oft, so|oft kiss, kiss|_ and _ de. light|
 c4 z4 | z4 z2 _e2- | e2 dc d2 G2 | c3 c B2 z2 | z4 z2 _e2- | e2 dc d3 G | c3 c B2 B2 | c3 c d4 | %15
w: me?|Sure|_ that my heart op\-|pressed, op\- pressed,|sure|_ that my heart op\-|pressed, op\- pressed and|o\- ver\- cloy\-|
 G2 _e2 c4 | z2 f4 d2 | _B2 _e3 d c2 | B2 c2 d4 | c8 || z8 | z4 z2 c2- | c2 G2 _B3 B | A3 B c2 G2 | %24
w: ed, May break,|may break|thus o\- ver\- joied,|o\- ver\- joy\-|ed,||If|_ you seek to|spill, to spill me,|
 z4 z2 _e2 | d3 c B2 z _e | d3 c B2 z G | c2 _B2 _A3 A | G2 G2 z4 | z2 G3 A B2 | c3 c d3 d | %31
w: Come|kiss me sweet, come|kiss me sweet, come|kiss me sweet and|kill me,|So shall your|heart, your heart, your|
 _e2 c2 d3 c | B2 z4 z2 | z2 z c d2 G2 | c3 c B2 (d3/2_e/4f/4) | _e4 z2 (c/d/e/c/) | f8- | f6 _e2 | %38
w: heart be eas\-- *|ed,|And I shall|rest con\- tent and _ _|die, and _ _ _|die|_ well|
 d8 | !fermata!c8 :| %40
w: pleas\--|ed.|
V:2
 G,2 G,G, _G,2 =G,2 | C,4 B,,2 C,2 | _A,,4 G,,4 | G,4 _E,2 C,2 | G,3 G, (F,>G, _A,)_B, | %5
w: La\- dy if you so|spite me, so|spite me,|Where\- fore do|you, do you _ _ so|
 CC,_E,F, G,2 E,2 | _A,2 A,A, G,4 | C,2 z C _B,2 A,G, | F,2 (_E,D,) E,2 C,2 | G,6 G,2 | %10
w: oft, do you so oft kiss|kiss and de\- light|me? Sure, sure that my|heart, my _ heart op\-|pressed, my|
 _A,3 A, G,2 F,(_E, | D,2) B,,2 C,4 | G,6 _B,2 | _A,3 A, G,3 G, | E,2 F,2 D,4 | C,4 z2 F,2 | %16
w: hearth op\- pressed and o\--|* ver\- cloy\-|ed, my|hearth op\- pressed and|o\- ver\- cloy\-|ed, May|
 D,4 _B,,4 | _E,3 D, C,4 | G,2 _A,2 G,4 | _E,8 || C6 G,2 | _B,4 _A,4 | G,6 D,>D, | F,4 C,3 C, | %24
w: break, thus|o\- ver\- joied,|o\- ver\- joy\-|ed,|If you|seek to|spill me, to|spill me, to|
 G,4 C,2 z C, | G,3 C, G,2 z C | B,3 C G,2 z _E, | _A,2 G,2 F,2 z F, | _E,2 z E, D,2 z D, | %29
w: spill me, Come|kiss me sweet, come|kiss me sweet, [come|kiss me sweet] and|kill and kill, and|
 C,2 z C, G,2 z G, | E,2 F,2 D,2 z G, | C,2 _E,2 D,4 | G,,2 z G, _E,2 G,2 | F,2 F,2 _B,,2 C,2 | %34
w: kill, kill me, So|shall your heart, your|heart be eas\--|ed, And I shall|rest con\- tent, con\-|
 _A,,2 A,,2 G,,4 | z2 C,2 F,4- | F,2 _E,2 D,2 C,2 | B,,4 C,4 | G,8 | !fermata!C,8 :| %40
w: tent, and die,|and die,|_ and die well|pleased, well|pleas\-|ed.|
V:3
"_Lute tuning: C, G, c, f, a, d', g'" [!4!G,!3!_B,!2!D!1!G]2 [!4!G,!2!D!1!G] [!4!G,!2!D!1!G] [!4!_G,!3!=A,!2!D!1!=A]2 [!4!=G,!3!=B,!2!D!1!G]2 | %1
 [!5!C,!4!G,!3!C!2!_E!1!G]4 [!6!=B,,!4!G,!2!D!1!G]2 [!5!C,!3!C!2!E!1!G]2 | %2
 !3!C !1!G !2!F2 [!3!B,!2!D!1!G]2- [!3!B,!2!D!1!G]2 | %3
 [!4!G,!3!B,!2!D]2- [!4!G,!3!B,!2!D] !1!G [!5!_E,!3!C]2 [!3!C!2!_E!1!G] !1!c | %4
 [!4!G,!2!D!1!_B]2- [!4!G,!2!D!1!B] [!4!G,!3!_B,!1!B] [!4!F,!3!C!1!_A]3/2 !4!G,/ !4!_A, [!3!B,!2!D] | %5
 [!3!C!2!_E!1!G] !5!C, !5!_E, [!4!F,!1!=A] [!4!G,!2!D!1!_B]2 [!5!E,!3!_B,!2!E!1!G]2 | %6
 [!4!_A,!3!C]2 !2!F2 [!4!G,!3!C!2!D!1!G]3/2 !3!C/ !3!=B, !2!F | %7
 [!5!C,!3!C!2!=E]2- [!5!C,!3!C!2!E] !3!C [!3!_B,!2!D]2 [!3!=A,!2!_E] !4!G, | %8
 [!4!F,!2!F]2 !5!_E, !5!D, !5!E,2 !5!C, !1!c | !4!G,2 !1!_B !1!A !1!B2 [!4!G,!2!_E] !1!G | %10
 [!4!_A,!3!C!2!_E]2 !2!F2 [!3!=B,!2!D!1!G] !4!G, [!4!F,!2!E] !5!_E, | %11
 [!5!D,!2!F]2 [!6!B,,!4!G,!2!D!1!G]2 !5!C, !3!C !1!c2 | !4!G,2 !1!_B !1!A !1!B2 [!3!_B,!2!D!1!G]2 | %13
 [!4!_A,!3!C!2!_E]2 !2!F2 [!4!G,!3!=B,!2!D!1!G]2- [!4!G,!3!B,!2!D!1!G] !4!G, | %14
 [!5!=E,!3!C!1!G]2 [!4!F,!3!C!1!_A]2 !2!F !3!C !3!B,2 | %15
 .[!5!C,!3!C!2!_E!1!G]6 [!4!F,!3!C!2!F!1!=A]2 | [!5!D,!3!=A,!2!D]2 !2!F2 [!6!_B,,!2!D]2 !1!_B2 | %17
 [!5!_E,!3!_B,!2!_E!1!G]2- [!5!E,!3!B,!2!E!1!G] !5!D, !5!C,2 [!3!C!2!E!1!G]2 | %18
 [!4!G,!3!=B,!2!D!1!G]2 [!4!_A,!3!C!2!F]2 [!4!G,!3!C!2!D!1!G]2 !3!B, !2!F | %19
 [!5!C,!4!G,!3!C!2!=E]6- [!5!C,!4!G,!3!C!2!E]2 || !2!_E4 !1!G2 !4!G,2 | %21
 !3!_B,2 !2!D2 [!4!_A,!2!F]2 !3!C2 | [!4!G,!2!_E]4 !2!D2 !5!D,2 | %23
 [!4!F,!3!C]2 !2!F2 [!5!C,!4!G,!3!C]2 !2!_E2 | %24
 [!4!G,!2!D]3/2 !3!C/ !3!=B,2 [!5!C,!4!G,!3!C]2 !1!G !5!C, | %25
 [!4!G,!3!B,!2!D!1!G]2- [!4!G,!3!B,!2!D!1!G] !5!C, !4!G,2 [!3!C!2!_E] !1!G | %26
 [!3!B,!2!D!1!G]2- [!3!B,!2!D!1!G] [!3!C!2!_E!1!G] [!4!G,!2!D!1!G]2 [!5!_E,!3!_B,] !1!G | %27
 [!4!_A,!3!C!2!F] !2!_E [!4!G,!2!E]2 !4!F, !2!E !2!D2 | !1!G2 !3!C !1!G [!5!D,!3!C!2!F]2 !3!=B,2 | %29
 [!5!C,!4!G,!3!C!2!_E]4 [!4!G,!2!D]2 x .!4!G,- | %30
 !6!G, !1!G [!4!F,!1!A]2 [!5!D,!3!=A,!2!F] !2!D !4!G,2 | .!5!C,4 !5!D,2 x2 | x2 .!1!_B4 !1!B2 | %33
 .!3!C6 x2 | .!3!C6 x2 | x4 x2 x2 | x4 x2 x2 | x4 x2 x2 | .[!2!D!1!G]4 x2 x2 | x4 x2 x2 :| %40
V:4
 x6 x2 | x4 x2 x2 | !6!_A,,4 !6!G,,2- !6!G,,2- | !6!G,,4 x2 .!5!C,2- | !5!C,6 !5!C,2- | %5
 !5!C,6 !6!C,2- | !6!C,6 x2 | x4 x2 x2 | x4 x2 x2 | x4 x2 x2 | x4 x2 x2 | x4 x2 x2 | x4 x2 x2 | %13
 x4 x2 x2 | x2 x2 !5!D,2 x2 | x4 x2 x2 | x4 x2 x2 | x4 x2 x2 | x4 x2 x2 | x4 x2 x2 || !3!C6 x2 | %21
 x4 x2 x2 | x4 x2 x2 | x4 x2 x2 | x4 x2 x2 | x4 x2 x2 | x4 x2 x2 | x4 x2 x2 | .!5!_E,6 x2 | %29
 x4 x2 !1!G2 | .[!5!=E,!4!G,!3!C]6 x !1!_B | %31
 [!3!C!2!_E!1!=A] !1!G [!5!_E,!4!G,!1!G] !3!=A, !3!_B, !1!G [!3!A,!2!_G]2 | %32
 [!6!G,,!3!=B,!1!=G]2 x !4!G, [!5!_E,!3!_B,!2!_E!1!G]3/2 !1!A/ !4!G, !3!B, | %33
 !4!F, !3!_B, !3!C !1!A [!6!_B,,!3!B,!2!D!1!_B]2 [!5!C,!3!C!2!_E!1!G] !6!B,, | %34
 !6!_A,,- [!6!A,,-!1!G] [!6!A,,!2!F]2 [!6!G,,!3!=B,!2!D!1!G]2- [!6!G,,!3!B,!2!D!1!G]2 | %35
 x2 [!5!C,!3!C!2!_E!1!G]2 [!4!F,!3!C!2!F!1!_A]2- [!4!F,!3!C!2!F!1!A]2 | %36
 x2 [!5!_E,!1!G]2 [!5!D,!2!F]2 [!5!C,!2!_E]2 | [!4!G,!2!D]2 [!6!=B,,!1!G]2 [!5!C,!3!C]2 !1!c2 | %38
 !6!G,,- [!6!G,,-!1!c] [!6!G,,-!1!=B] [!6!G,,-!1!=A] [!6!G,,-!1!B] [!6!G,,!1!c] !2!F !1!B | %39
 [!5!C,!4!G,!3!C!2!=E!1!c]4 !6!C,,2- !6!C,,2 :| %40

